X: 775
T: Shoucheng hao
%%abc-version 2.0
%%abcx-abcm2ps-target-version 5.9.1 (29 Sep 2008)
%%abc-creator hum2abc beta
%%abcx-conversion-date 2013/10/02 07:52:30
%%abc-edited-by Helmut Schaffrath
%%humdrum-veritas 3028561904
%%humdrum-veritas-data 2923393882
%%continueall 1
%%barnumbers 0
L: 1/8
M: 2/4
K: Bb
bb2c' [I:setbarnb 1]| 
d' f' d' c' | 
d' c' d' c' | 
bb2g | 
bb2c' | 
d' f' d' c' | 
d' c' d' c' | 
b3g | 
f' d' f' d' | 
c' d'b2 | 
b g b g | 
b gf2 | 
b gf2 | 
f d' c' d' | 
f2f2 | 
g f d c | 
b b g c' | 
b4 |]  



